X: 1650
T: the Green Flag   #2
%S: s:2 b:16(5+5+6)
B: O'Neill's 1850 #1650
O: F.O'Neill
N: Compacted via repeats and multiple endings [JC]
M: C|
L: 1/8
K: G
G2 \
|: D>GB>G d>GB>G | e>fg>e d>BA>B |\
[1,3 G>FG>A B>AB>G | A>BA>F G>FE>D :|\
[2,4 G>Bd>g e>cA>F | G2 G2 G2 :: d2 | g>be>g d>gB>d |
| d>Bg>ed>BA>B | GBd>B e>dc>B | A>^G A>B A2 |\
| D>C | B,>DG>B d2c>B | A>Bc>d e2g>e | d>BG>B A>GF>A | G2 G2 G2 :|
